<?xml version="1.0" encoding="UTF-8"?>
<map version="1.10" tiledversion="1.11.2" orientation="orthogonal" renderorder="right-down" width="50" height="50" tilewidth="32" tileheight="32" infinite="0" nextlayerid="3" nextobjectid="9">
 <tileset firstgid="1" name="Grass" tilewidth="32" tileheight="32" tilecount="64" columns="8">
  <image source="Grass.png" width="256" height="256"/>
 </tileset>
 <tileset firstgid="65" name="box" tilewidth="32" tileheight="32" tilecount="1" columns="1">
  <image source="box.png" width="32" height="32"/>
  <tile id="0">
   <objectgroup draworder="index" id="2">
    <object id="1" x="3" y="2.99995" width="26" height="26"/>
   </objectgroup>
  </tile>
 </tileset>
 <layer id="1" name="Tile Layer 1" width="50" height="50">
  <data encoding="csv">
14,19,14,5,29,30,31,16,25,11,20,20,29,24,15,9,32,8,18,16,25,12,14,2,54,42,44,28,4,3,9,25,12,31,16,30,29,19,8,27,27,13,25,7,22,7,30,15,2,20,
23,26,17,8,18,17,17,30,20,18,4,28,21,23,2,16,22,31,25,21,25,8,31,11,61,34,60,17,11,14,10,21,22,9,20,27,5,32,9,18,28,32,3,16,16,21,15,29,21,18,
27,21,8,17,31,32,18,20,16,21,2,28,26,7,25,1,20,17,15,28,6,28,15,35,34,42,36,24,18,3,6,16,10,9,16,31,13,14,2,32,13,23,28,1,4,6,17,26,12,32,
27,2,11,21,28,14,15,15,26,10,9,2,22,32,19,17,5,11,14,6,31,19,6,35,41,42,60,9,16,3,22,25,17,3,18,2,21,18,7,26,25,32,15,3,20,14,25,17,19,21,
25,6,20,18,18,12,32,28,4,32,32,20,7,30,1,22,19,19,19,6,19,13,22,43,42,49,52,28,7,19,32,23,10,24,12,13,26,16,24,5,21,14,2,25,13,28,2,6,9,29,
28,14,17,31,27,30,15,13,1,13,20,19,19,31,17,6,19,19,5,18,10,16,20,43,41,42,36,2,3,19,25,8,8,5,3,20,7,17,20,16,5,26,2,24,32,13,3,14,28,9,
31,18,9,21,30,15,15,29,2,21,23,19,19,30,7,7,16,19,15,17,21,23,26,43,42,33,50,14,2,5,31,28,11,25,16,11,3,1,21,7,27,27,9,29,6,24,26,3,28,19,
3,4,25,5,11,1,31,12,16,7,7,20,19,19,19,19,19,19,19,19,5,19,18,43,34,41,34,55,15,5,24,27,2,9,25,21,20,14,1,24,1,13,17,14,17,14,3,4,2,7,
3,4,31,6,1,26,3,28,10,17,26,6,19,19,19,29,29,2,29,4,8,25,16,51,50,34,34,60,28,2,15,26,3,11,18,11,14,8,17,1,18,8,1,21,13,32,27,31,13,27,
3,24,19,20,13,30,3,32,12,16,11,32,11,13,19,11,12,25,10,29,21,18,18,51,50,49,50,60,2,28,21,24,8,17,28,9,11,11,6,15,17,1,19,15,28,9,6,4,8,15,
4,12,17,4,25,21,11,31,5,32,13,18,16,10,2,23,17,26,26,14,8,4,28,61,50,34,41,36,22,10,7,27,8,24,8,27,3,26,32,21,11,13,30,17,1,27,15,10,17,22,
12,29,20,4,15,21,31,5,11,16,11,1,31,21,28,24,1,5,11,19,6,10,7,61,34,34,42,60,4,30,17,32,1,7,24,27,25,15,14,8,16,21,26,25,15,20,4,19,1,17,
24,4,22,4,15,8,3,3,31,23,2,30,12,2,9,12,29,31,9,10,19,26,24,50,42,33,42,44,14,10,2,19,1,26,17,14,6,25,17,24,32,27,4,29,2,9,4,26,32,9,
19,8,25,32,3,17,12,18,7,13,22,1,20,12,6,14,2,28,16,10,10,3,32,41,34,50,49,16,11,26,16,12,21,31,5,3,10,29,3,9,7,18,15,9,26,31,30,28,27,25,
11,2,22,27,10,5,32,9,2,27,18,4,3,2,15,15,28,25,26,20,16,12,6,33,49,42,50,26,18,17,18,19,7,28,29,4,16,12,31,27,10,10,7,7,8,3,31,27,7,7,
19,22,2,32,3,24,5,28,5,31,28,18,28,21,29,19,21,10,25,14,19,10,20,42,50,41,41,3,6,17,10,8,32,8,26,27,15,24,3,5,17,21,19,24,6,8,12,12,16,27,
5,16,17,27,6,17,1,14,11,27,32,17,7,19,20,13,22,22,23,5,12,15,35,50,50,49,36,17,22,24,32,28,19,28,20,13,10,14,10,4,29,10,4,11,17,17,8,27,24,11,
3,20,9,26,2,4,7,28,1,19,21,21,32,3,16,7,3,13,9,7,30,23,51,42,42,49,52,11,24,11,8,8,28,9,10,24,7,13,17,9,15,28,22,21,20,23,22,18,19,32,
16,14,21,12,3,31,3,18,9,21,25,5,30,4,1,22,10,25,2,16,18,28,54,41,34,34,60,19,28,30,18,13,14,12,28,30,5,28,6,3,29,26,19,14,20,29,22,27,27,10,
22,32,5,31,1,4,26,22,28,14,31,1,5,30,28,32,19,22,3,1,3,7,43,50,50,49,60,9,5,29,10,6,12,25,17,12,29,25,22,28,18,8,2,32,12,15,30,6,18,11,
2,32,19,1,14,29,31,20,24,23,2,27,13,21,5,3,7,22,27,17,16,2,35,42,33,34,44,10,22,18,4,4,3,10,9,6,11,20,27,16,16,8,15,21,30,17,25,8,16,2,
14,25,6,3,16,5,6,19,32,6,40,40,37,13,18,1,2,23,19,24,13,27,43,33,34,49,62,1,1,11,5,18,8,14,30,4,12,19,2,2,3,6,39,37,38,39,40,37,40,37,
34,38,39,56,40,40,38,38,56,50,41,42,41,41,62,39,39,56,37,2,32,23,34,34,50,34,41,49,41,39,37,37,37,38,37,40,32,12,27,6,25,34,41,42,50,50,41,49,34,42,
49,50,41,49,42,33,50,41,41,41,42,33,41,34,50,34,34,34,33,62,38,40,33,50,50,42,34,50,50,34,49,34,42,49,41,42,39,37,38,39,33,50,42,42,49,41,49,50,50,49,
33,50,49,42,41,34,33,49,41,33,42,49,42,41,34,42,41,50,33,42,41,41,33,34,49,42,41,42,50,50,50,49,41,41,34,42,42,50,41,42,33,33,50,33,42,34,41,49,33,33,
49,49,49,34,33,42,33,33,41,42,33,42,50,33,33,50,49,42,42,34,42,42,50,41,50,34,33,33,49,49,34,41,33,49,33,49,33,41,42,34,34,33,41,34,34,33,41,33,34,42,
33,41,49,41,41,49,46,54,45,46,54,46,48,45,49,33,33,45,45,48,34,33,41,34,34,50,49,42,57,48,46,53,46,47,53,48,45,47,53,47,58,33,49,42,50,34,34,33,42,49,
54,48,46,54,19,8,15,6,17,14,27,1,32,17,4,21,2,12,9,23,4,31,56,50,33,33,49,60,21,30,30,27,12,25,26,26,7,28,25,18,7,45,48,45,45,53,48,46,53,9,
25,29,8,3,19,6,21,19,25,1,27,10,21,16,26,22,23,30,5,27,19,27,21,35,34,41,34,60,23,28,30,27,11,23,20,10,29,29,18,10,10,8,32,19,29,12,15,5,1,6,
12,23,13,21,22,23,21,20,24,27,30,29,13,18,11,10,2,12,26,14,6,13,2,51,33,41,50,60,8,23,17,25,23,10,9,17,17,9,2,7,32,2,20,6,14,28,23,18,11,6,
17,2,6,2,29,21,4,19,29,3,19,16,6,14,10,7,2,30,20,23,28,7,30,51,34,33,42,44,11,8,11,16,6,4,31,29,25,17,11,25,17,16,5,8,30,24,16,1,21,1,
25,4,27,12,29,5,27,10,24,9,14,12,13,16,31,28,7,24,19,19,28,2,18,35,49,34,34,36,19,14,19,20,1,10,3,20,15,18,24,21,23,19,4,28,2,11,18,32,12,1,
9,26,4,31,10,5,15,30,1,18,14,30,24,11,9,30,18,18,5,31,26,7,32,51,33,50,33,44,21,32,13,18,1,28,15,27,20,8,2,14,29,5,29,28,6,7,7,26,18,9,
32,2,15,27,3,31,9,21,20,29,18,30,3,18,13,27,3,7,9,3,8,3,11,34,49,49,34,44,29,22,10,12,4,10,8,8,19,21,29,28,23,13,13,21,13,19,21,2,3,28,
20,23,3,29,17,2,18,29,27,15,13,20,28,13,15,12,21,1,10,29,10,11,24,33,34,50,42,52,31,9,2,12,9,7,9,4,30,21,17,31,22,27,30,18,25,27,25,25,32,32,
28,22,27,2,17,15,14,16,1,19,8,6,11,18,20,15,23,7,13,19,20,5,4,49,50,33,52,4,23,7,22,20,20,17,29,30,14,12,13,26,16,3,26,4,26,23,19,19,24,13,
3,26,15,7,6,30,2,1,26,15,23,26,7,20,28,17,30,20,4,8,12,32,18,42,33,42,60,7,11,7,25,7,30,6,18,2,16,9,27,31,6,15,32,23,4,15,13,21,31,10,
17,5,3,18,20,7,13,32,9,7,20,7,31,17,20,7,27,26,6,9,13,16,35,33,50,50,44,3,8,8,30,26,15,5,19,16,16,22,28,7,3,3,19,18,14,15,1,16,21,6,
11,14,11,18,2,6,28,15,5,11,26,9,8,9,20,9,14,18,12,6,4,11,43,42,33,33,60,24,12,24,23,18,14,18,15,5,16,22,11,19,14,3,23,27,27,21,24,12,32,20,
5,10,23,15,13,4,18,22,24,25,25,13,13,16,1,22,24,24,20,6,29,13,35,33,41,49,62,9,17,29,18,28,6,14,25,11,16,30,5,6,20,24,25,30,13,27,15,19,12,6,
17,21,24,8,17,19,18,18,5,9,4,24,20,26,8,14,16,27,24,30,2,27,35,42,33,41,41,23,3,25,3,1,1,30,2,1,8,10,14,16,31,13,30,23,5,27,20,17,10,4,
20,6,32,2,19,32,26,25,5,25,1,29,19,31,26,28,1,18,3,20,12,21,35,34,42,33,41,24,31,13,22,13,14,21,23,2,19,24,18,13,20,28,31,13,21,4,20,16,11,10,
7,22,3,21,8,23,32,29,25,23,6,15,23,7,24,13,23,29,32,21,12,13,51,42,49,49,34,24,22,3,29,25,20,14,18,30,21,29,26,5,3,5,12,25,25,16,3,11,22,9,
2,23,5,29,27,8,29,14,22,26,14,27,21,20,22,5,23,26,23,15,16,24,35,41,33,50,42,30,32,9,5,2,24,18,24,3,10,3,28,18,9,29,20,28,17,11,18,29,5,18,
32,14,30,17,28,25,9,6,8,4,22,29,12,9,3,6,24,6,25,5,18,6,51,49,50,34,50,11,32,25,28,10,2,20,29,31,20,18,24,1,13,24,29,7,32,3,19,24,20,20,
28,13,29,13,19,3,19,32,18,22,26,3,24,15,9,3,26,20,32,13,4,6,43,49,34,41,52,20,21,32,19,20,28,9,28,18,12,12,27,17,8,5,12,29,4,28,12,32,30,25,
7,22,22,13,18,22,28,22,5,5,14,26,17,1,16,6,18,3,3,28,4,15,35,42,33,42,60,3,15,17,28,23,19,29,13,25,18,26,25,1,14,32,4,19,20,29,13,26,24,16,
6,2,19,31,10,13,27,6,7,13,15,21,25,25,4,29,9,7,1,25,23,9,27,58,49,42,44,1,23,14,28,1,17,2,11,13,5,31,4,13,19,20,17,8,20,9,27,11,19,7,
6,30,18,22,13,14,21,30,4,8,8,10,32,6,2,13,28,1,11,2,9,29,23,43,34,34,52,16,27,8,18,9,8,17,31,22,14,20,2,6,14,8,31,13,10,15,2,9,1,15,
4,22,27,13,10,7,32,11,26,32,12,6,4,29,9,5,27,1,28,5,12,23,16,51,33,41,50,17,9,14,30,22,17,28,9,18,1,5,20,13,2,11,14,9,12,1,30,29,25,28
</data>
 </layer>
 <objectgroup id="2" name="Objects">
  <object id="8" type="Player" x="826.87" y="794.87" width="5.13043" height="5.13043">
   <ellipse/>
  </object>
 </objectgroup>
</map>
