<?xml version="1.0" encoding="UTF-8"?>
<map version="1.10" tiledversion="1.11.2" orientation="orthogonal" renderorder="right-down" width="10" height="10" tilewidth="32" tileheight="32" infinite="0" nextlayerid="3" nextobjectid="31">
 <tileset firstgid="1" name="Grass" tilewidth="32" tileheight="32" tilecount="64" columns="8">
  <image source="Grass.png" width="256" height="256"/>
 </tileset>
 <tileset firstgid="65" name="box" tilewidth="32" tileheight="32" tilecount="1" columns="1">
  <image source="box.png" width="32" height="32"/>
  <tile id="0">
   <objectgroup draworder="index" id="2">
    <object id="1" x="3" y="3" width="26" height="26"/>
   </objectgroup>
  </tile>
 </tileset>
 <layer id="1" name="Tile Layer 1" width="10" height="10">
  <data encoding="csv">
26,49,9,49,22,41,5,33,6,42,
1,34,7,49,21,42,11,49,15,49,
32,33,24,34,24,41,15,42,16,33,
32,34,13,49,5,41,8,33,5,34,
31,50,20,50,7,41,16,49,25,41,
18,41,25,41,31,33,13,34,24,49,
25,50,7,34,22,33,7,41,27,49,
6,42,16,41,32,34,19,49,3,34,
12,34,3,41,24,33,19,41,12,49,
18,49,1,50,32,42,21,33,25,34
</data>
 </layer>
 <objectgroup id="2" name="Objects">
  <object id="21" gid="65" x="128" y="64" width="32" height="32"/>
  <object id="23" gid="65" x="128" y="96" width="32" height="32"/>
  <object id="24" gid="65" x="128" y="128" width="32" height="32"/>
  <object id="29" type="Player" x="140.434" y="182.816" width="7.60346" height="7.60346" rotation="358.952">
   <ellipse/>
  </object>
 </objectgroup>
</map>
